Adwaita++-Dark/devices/16/tablet.svg

<svg fill="none" height="16" viewBox="0 0 16 16" width="16" xmlns="http://www.w3.org/2000/svg">
  <path clip-rule="evenodd" d="m3.54999 12h9.00001v-8h-9.00001zm-2.5.5c0 .5523.44771 1 1 1h12.00001c.5523 0 1-.4477 1-1v-9c0-.55228-.4477-1-1-1h-12.00001c-.55229 0-1 .44771-1 1z" fill="#e6ddff" fill-rule="evenodd"/>
</svg>

<svg width="16" height="16" viewBox="0 0 16 16" fill="none" xmlns="http://www.w3.org/2000/svg">
<path fill-rule="evenodd" clip-rule="evenodd" d="M3.54999 12H12.55V4H3.54999L3.54999 12ZM1.04999 12.5C1.04999 13.0523 1.4977 13.5 2.04999 13.5H14.05C14.6023 13.5 15.05 13.0523 15.05 12.5V3.5C15.05 2.94772 14.6023 2.5 14.05 2.5H2.04999C1.4977 2.5 1.04999 2.94771 1.04999 3.5L1.04999 12.5Z" fill="#E6DDFF"/>
</svg>
